healthcode/henan-hc/static/hsjc.13715733.svg

<svg height="31" viewBox="0 0 129 31" width="129" xmlns="http://www.w3.org/2000/svg"><path d="m171.932 47.502c.902-1.628 1.54-2.706 1.914-3.234s1.0285-1.5785 1.9635-3.1515 1.7545-2.97 2.4585-4.191 1.716-3.1735 3.036-5.8575h-5.313l-3.333 6.303h-1.089c.528-1.122.9075-1.9525 1.1385-2.4915s.5115-1.1825.8415-1.9305.638-1.3805.924-1.8975.704-1.4685 1.254-2.8545h7.986v-2.013h-5.247l-.495-2.046h-6.336l.528 2.046h-5.478v2.013h3.795c-.308 1.034-.6985 2.101-1.1715 3.201s-.9515 2.1065-1.4355 3.0195-.869 1.6115-1.155 2.0955l-.396.693v1.98h5.148l-5.478 8.316zm-9.471 6.831v-23.892h3.135l.033-2.211h-3.168v-3.828h-5.214v3.828h-3.498v2.211h3.498v23.892zm-6.435 0c.088-1.364.132-2.5575.132-3.5805l.000823-.2856877c.006399-1.2797784.050124-4.5285491.131177-9.7463123.048-3.09.073091-5.3372727.075273-6.7418182l-.000256-.4872017c-.002511-.8456534-.016517-1.2684801-.042017-1.2684801h-2.211c-.022 0-.165 3.5145-.429 10.5435-.202213 5.3839149-.307622 8.9059665-.316226 10.5661548l-.000135.3762583c.001673.2999728.008127.5080018.019361.6240869zm9.867 0c-.022-2.068-.0385-3.5255-.0495-4.3725s-.2255-6.7595-.6435-17.7375h-1.914c-.033 0-.050875.33825-.053625 1.01475l.000316.4814885c.002932.6454362.015202 1.4996901.036809 2.5627615.055 2.706.0825 5.17.0825 7.392l.000587 5.7779333c.002542 1.2139111.013346 2.8409334.032413 4.8810667zm8.019.165 3.432-4.983 1.584 4.95h4.851c-.924-2.794-1.595-4.686-2.013-5.676s-.759-1.991-1.023-3.003l-.363-1.518 1.551-2.607c1.056-1.76 1.661-2.75 1.815-2.97h-5.577c-1.254 2.046-2.112 3.4485-2.574 4.2075s-.913 1.4575-1.353 2.0955l-1.65 2.409c-.66.946-2.431 3.311-5.313 7.095zm42.867-22.374-2.541-6.336h-4.653l1.617 4.29h-5.28l2.376-5.973h-4.851l-3.003 6.138v1.881zm-30.063 22.539 12.573-.099h6.468l2.475-2.805 2.475 2.838h6.501l-5.61-6.072 4.884-6.864v-2.64h-8.877l.759-1.749h-2.871l1.947-4.455h-5.214l-2.541 4.851v-7.656h-2.475v-3.3h2.871v-1.98h-13.431v1.98h2.871v3.3h-2.805zm7.062-24.651h-.792v-3.3h.792zm2.112 16.896h-5.148v-15.147h.726c-.044 1.672-.077 3.014-.099 4.026s-.066 2.442-.132 4.29-.132 3.212-.198 4.092h1.683c.066-3.652.154-7.788.264-12.408h.792l-.066 12.507h2.178zm0-4.488h-.693c.022-.858.033-1.7215.033-2.5905 0-.0271563-.000032-.0560903-.000097-.0868022l-.000773-.2056055c-.005608-1.096874-.038317-3.6889048-.09813-7.7760923h.759zm21.384-4.686-2.607-4.851h-4.95l2.31 4.851zm-17.589 6.369v-6.369h3.366zm8.679.99-2.145-2.805.594-1.287h4.323zm-8.679 9.075v-9.339h2.739c1.166 1.408 2.145 2.684 2.937 3.828zm-3.795-1.551h-5.148v-3.828h5.148zm40.755-18.81c1.232-1.98 2.464-4.092 3.696-6.336l.231.198 3.762 6.138h5.973l-3.597-5.28-2.805-4.224-7.161-.066c-1.54 3.058-3.52 6.248-5.94 9.57zm-13.563 21.12 4.851-.099v-24.255h3.036v-2.112h-3.036v-4.092h-4.851v3.993l-3.498.099v2.211h3.498zm8.052-.099-.099-5.016c-.044-3.344-.209-9.229-.495-17.655h-1.914l.429 22.671zm-9.141.099.198-22.638-2.211-.033-.528 22.671zm27.753-18.546v-1.749h-18.183v1.749zm-18.249 17.985c6.138.11 12.243.132 18.315.066v-1.914h-2.277c.858-6.358 1.43-11.473 1.716-15.345l-1.091965-.0003867c-.545273-.0038672-1.622285-.0367383-3.231035-.0986133-.176 2.75-.3355 4.906-.4785 6.468s-.5005 4.554-1.0725 8.976h-11.88zm11.715-2.838c-.034571 0-.123469-.8624337-.266694-2.587301l-.040408-.491801c-.027837-.3421225-.057469-.7127551-.088898-1.111898-.22-2.794-.572-6.138-1.056-10.032h-4.224c.748 4.884 1.232 9.625 1.452 14.223zm-5.577-.363c-.11-1.21-.2695-2.97-.4785-5.28s-.5665-5.159-1.0725-8.547h-4.158c.022 0 .1045.605.2475 1.815s.3025 2.728.4785 4.554.341 4.312.495 7.458zm40.392 3.135c1.342 0 2.508-.011 3.498-.033.088-.176.143-.319.165-.429.002918-.0145918.005256-.2006824.007013-.5582718l.00077-.1772186c.000121-.031566.000239-.0641468.000354-.0977424l.000646-.213751c.0001-.0376547.000198-.0763242.000292-.1160085l.000752-.3845579c.000073-.045773.000143-.0925608.000275-.1403634v-3.8237599c0-.0863644-.000132-.1737436-.000203-.2621376l-.000732-.8229453c-.000091-.0944827-.000186-.1899802-.000285-.2864925l-.000632-.5912511c-.000112-.1005714-.000228-.2021576-.000347-.3047586l-.000756-.6277835c-.006112-4.9063665-.019494-11.9600191-.040147-21.1609579l-4.455-.066v26.928l-.726-.99v-25.344h-3.597v29.304h3.597v-1.32c.66.726 1.177 1.232 1.551 1.518zm-24.156-22.374 4.95-.066c-.022-.88-.242-2.2495-.66-4.1085s-.715-2.9865-.891-3.3825h-.396l-4.323.165c.55 2.464.99 4.928 1.32 7.392zm8.844 14.421v-19.701h5.808c.044 6.336.077 12.859.099 19.569h3.366v-21.582h-12.243l-.132 21.714zm1.716 7.986c.726-.902 1.375-1.925 1.947-3.069l.297-.594c.286.946.682 2.167 1.188 3.663l4.422-.033c-.374-1.034-.6545-1.804-.8415-2.31s-.385-1.067-.594-1.683-.5665-1.573-1.0725-2.871h-2.277c.242-2.09.363-3.586.363-4.488v-13.068c0-.308-.022-.66-.066-1.056h-4.257v.264c.0352 3.696.05456 6.75752.05808 9.18456l-.000055 1.5564818c-.004683 2.7219055-.035025 4.4160582-.091025 5.0824582-.11 1.309-.4565 2.6675-1.0395 4.0755s-1.0395 2.3595-1.3695 2.8545-1.067 1.3255-2.211 2.4915zm-5.28-13.827c-.55-3.388-.979-5.907-1.287-7.557h-4.851l-.231.231c.33 2.134.5665 3.7565.7095 4.8675s.2145 1.9305.2145 2.4585c1.782.154 3.597.154 5.445 0zm-1.386 13.563c.528-3.938.8745-6.798 1.0395-8.58s.2475-3.08.2475-3.894l-4.488-.099-.462.165c-.11 1.606-.275 3.421-.495 5.445s-.4015 3.3605-.5445 4.0095-.2915 1.6005-.4455 2.8545c1.672.154 3.388.187 5.148.099z" fill="#555" transform="translate(-153 -24)"/></svg>

<?xml version="1.0" encoding="UTF-8"?>
<svg width="129px" height="31px" viewBox="0 0 129 31" version="1.1" xmlns="http://www.w3.org/2000/svg" xmlns:xlink="http://www.w3.org/1999/xlink">
    <title>核酸检测</title>
    <g id="新乡场所码" stroke="none" stroke-width="1" fill="none" fill-rule="evenodd">
        <g id="绿" transform="translate(-539.000000, -844.000000)" fill="#555555" fill-rule="nonzero">
            <g id="阴性结果" transform="translate(386.000000, 820.000000)">
                <path d="M171.932,47.502 C172.834,45.874 173.472,44.796 173.846,44.268 C174.22,43.74 174.8745,42.6895 175.8095,41.1165 C176.7445,39.5435 177.564,38.1465 178.268,36.9255 C178.972,35.7045 179.984,33.752 181.304,31.068 L181.304,31.068 L175.991,31.068 L172.658,37.371 L171.569,37.371 C172.097,36.249 172.4765,35.4185 172.7075,34.8795 C172.9385,34.3405 173.219,33.697 173.549,32.949 C173.879,32.201 174.187,31.5685 174.473,31.0515 C174.759,30.5345 175.177,29.583 175.727,28.197 L175.727,28.197 L183.713,28.197 L183.713,26.184 L178.466,26.184 L177.971,24.138 L171.635,24.138 L172.163,26.184 L166.685,26.184 L166.685,28.197 L170.48,28.197 C170.172,29.231 169.7815,30.298 169.3085,31.398 C168.8355,32.498 168.357,33.5045 167.873,34.4175 C167.389,35.3305 167.004,36.029 166.718,36.513 L166.718,36.513 L166.322,37.206 L166.322,39.186 L171.47,39.186 L165.992,47.502 L171.932,47.502 Z M162.461,54.333 L162.461,30.441 L165.596,30.441 L165.629,28.23 L162.461,28.23 L162.461,24.402 L157.247,24.402 L157.247,28.23 L153.749,28.23 L153.749,30.441 L157.247,30.441 L157.247,54.333 L162.461,54.333 Z M156.026,54.333 C156.114,52.969 156.158,51.7755 156.158,50.7525 L156.158,50.7525 L156.158823,50.4668123 C156.165222,49.1870339 156.208947,45.9382632 156.29,40.7205 C156.338,37.6305 156.363091,35.3832273 156.365273,33.9786818 L156.365017,33.4914801 C156.362506,32.6458267 156.3485,32.223 156.323,32.223 L156.323,32.223 L154.112,32.223 C154.09,32.223 153.947,35.7375 153.683,42.7665 C153.480787,48.1504149 153.375378,51.6724665 153.366774,53.3326548 L153.366639,53.7089131 C153.368312,54.0088859 153.374766,54.2169149 153.386,54.333 L153.386,54.333 L156.026,54.333 Z M165.893,54.333 C165.871,52.265 165.8545,50.8075 165.8435,49.9605 C165.8325,49.1135 165.618,43.201 165.2,32.223 L165.2,32.223 L163.286,32.223 C163.253,32.223 163.235125,32.56125 163.232375,33.23775 L163.232691,33.7192385 C163.235623,34.3646747 163.247893,35.2189286 163.2695,36.282 C163.3245,38.988 163.352,41.452 163.352,43.674 L163.352,43.674 L163.352587,49.4519333 C163.355129,50.6658444 163.365933,52.2928667 163.385,54.333 L163.385,54.333 L165.893,54.333 Z M173.912,54.498 L177.344,49.515 L178.928,54.465 L183.779,54.465 C182.855,51.671 182.184,49.779 181.766,48.789 C181.348,47.799 181.007,46.798 180.743,45.786 L180.743,45.786 L180.38,44.268 L181.931,41.661 C182.987,39.901 183.592,38.911 183.746,38.691 L183.746,38.691 L178.169,38.691 C176.915,40.737 176.057,42.1395 175.595,42.8985 C175.133,43.6575 174.682,44.356 174.242,44.994 L174.242,44.994 L172.592,47.403 C171.932,48.349 170.161,50.714 167.279,54.498 L167.279,54.498 L173.912,54.498 Z M216.779,32.124 L214.238,25.788 L209.585,25.788 L211.202,30.078 L205.922,30.078 L208.298,24.105 L203.447,24.105 L200.444,30.243 L200.444,32.124 L216.779,32.124 Z M186.716,54.663 L199.289,54.564 L205.757,54.564 L208.232,51.759 L210.707,54.597 L217.208,54.597 L211.598,48.525 L216.482,41.661 L216.482,39.021 L207.605,39.021 L208.364,37.272 L205.493,37.272 L207.44,32.817 L202.226,32.817 L199.685,37.668 L199.685,30.012 L197.21,30.012 L197.21,26.712 L200.081,26.712 L200.081,24.732 L186.65,24.732 L186.65,26.712 L189.521,26.712 L189.521,30.012 L186.716,30.012 L186.716,54.663 Z M193.778,30.012 L192.986,30.012 L192.986,26.712 L193.778,26.712 L193.778,30.012 Z M195.89,46.908 L190.742,46.908 L190.742,31.761 L191.468,31.761 C191.424,33.433 191.391,34.775 191.369,35.787 C191.347,36.799 191.303,38.229 191.237,40.077 C191.171,41.925 191.105,43.289 191.039,44.169 L191.039,44.169 L192.722,44.169 C192.788,40.517 192.876,36.381 192.986,31.761 L192.986,31.761 L193.778,31.761 L193.712,44.268 L195.89,44.268 L195.89,46.908 Z M195.89,42.42 L195.197,42.42 C195.219,41.562 195.23,40.6985 195.23,39.8295 C195.23,39.8023437 195.229968,39.7734097 195.229903,39.7426978 L195.22913,39.5370923 C195.223522,38.4402183 195.190813,35.8481875 195.131,31.761 L195.131,31.761 L195.89,31.761 L195.89,42.42 Z M217.274,37.734 L214.667,32.883 L209.717,32.883 L212.027,37.734 L217.274,37.734 Z M199.685,44.103 L199.685,37.734 L203.051,37.734 L199.685,44.103 Z M208.364,45.093 L206.219,42.288 L206.813,41.001 L211.136,41.001 L208.364,45.093 Z M199.685,54.168 L199.685,44.829 L202.424,44.829 C203.59,46.237 204.569,47.513 205.361,48.657 L205.361,48.657 L199.685,54.168 Z M195.89,52.617 L190.742,52.617 L190.742,48.789 L195.89,48.789 L195.89,52.617 Z M236.645,33.807 C237.877,31.827 239.109,29.715 240.341,27.471 L240.341,27.471 L240.572,27.669 L244.334,33.807 L250.307,33.807 L246.71,28.527 L243.905,24.303 L236.744,24.237 C235.204,27.295 233.224,30.485 230.804,33.807 L230.804,33.807 L236.645,33.807 Z M223.082,54.927 L227.933,54.828 L227.933,30.573 L230.969,30.573 L230.969,28.461 L227.933,28.461 L227.933,24.369 L223.082,24.369 L223.082,28.362 L219.584,28.461 L219.584,30.672 L223.082,30.672 L223.082,54.927 Z M231.134,54.828 L231.035,49.812 C230.991,46.468 230.826,40.583 230.54,32.157 L230.54,32.157 L228.626,32.157 L229.055,54.828 L231.134,54.828 Z M221.993,54.927 L222.191,32.289 L219.98,32.256 L219.452,54.927 L221.993,54.927 Z M249.746,36.381 L249.746,34.632 L231.563,34.632 L231.563,36.381 L249.746,36.381 Z M231.497,54.366 C237.635,54.476 243.74,54.498 249.812,54.432 L249.812,54.432 L249.812,52.518 L247.535,52.518 C248.393,46.16 248.965,41.045 249.251,37.173 L249.251,37.173 L248.159035,37.1726133 C247.613762,37.1687461 246.53675,37.135875 244.928,37.074 C244.752,39.824 244.5925,41.98 244.4495,43.542 C244.3065,45.104 243.949,48.096 243.377,52.518 L243.377,52.518 L231.497,52.518 L231.497,54.366 Z M243.212,51.528 C243.177429,51.528 243.088531,50.6655663 242.945306,48.940699 L242.904898,48.448898 C242.877061,48.1067755 242.847429,47.7361429 242.816,47.337 C242.596,44.543 242.244,41.199 241.76,37.305 L241.76,37.305 L237.536,37.305 C238.284,42.189 238.768,46.93 238.988,51.528 L238.988,51.528 L243.212,51.528 Z M237.635,51.165 C237.525,49.955 237.3655,48.195 237.1565,45.885 C236.9475,43.575 236.59,40.726 236.084,37.338 L236.084,37.338 L231.926,37.338 C231.948,37.338 232.0305,37.943 232.1735,39.153 C232.3165,40.363 232.476,41.881 232.652,43.707 C232.828,45.533 232.993,48.019 233.147,51.165 L233.147,51.165 L237.635,51.165 Z M278.027,54.3 C279.369,54.3 280.535,54.289 281.525,54.267 C281.613,54.091 281.668,53.948 281.69,53.838 C281.692918,53.8234082 281.695256,53.6373176 281.697013,53.2797282 L281.697783,53.1025096 C281.697904,53.0709436 281.698022,53.0383628 281.698137,53.0047672 L281.698783,52.7910162 C281.698883,52.7533615 281.698981,52.714692 281.699075,52.6750077 L281.699827,52.2904498 C281.6999,52.2446768 281.69997,52.197889 281.700102,52.1500864 L281.700102,48.3263265 C281.700102,48.2399621 281.69997,48.1525829 281.699899,48.0641889 L281.699167,47.2412436 C281.699076,47.1467609 281.698981,47.0512634 281.698882,46.9547511 L281.69825,46.3635 C281.698138,46.2629286 281.698022,46.1613424 281.697903,46.0587414 L281.697147,45.4309579 C281.691035,40.5245914 281.677653,33.4709388 281.657,24.27 L281.657,24.27 L277.202,24.204 L277.202,51.132 L276.476,50.142 L276.476,24.798 L272.879,24.798 L272.879,54.102 L276.476,54.102 L276.476,52.782 C277.136,53.508 277.653,54.014 278.027,54.3 Z M253.871,31.926 L258.821,31.86 C258.799,30.98 258.579,29.6105 258.161,27.7515 C257.743,25.8925 257.446,24.765 257.27,24.369 L256.874,24.369 L252.551,24.534 C253.101,26.998 253.541,29.462 253.871,31.926 Z M262.715,46.347 L262.715,26.646 L268.523,26.646 C268.567,32.982 268.6,39.505 268.622,46.215 L268.622,46.215 L271.988,46.215 L271.988,24.633 L259.745,24.633 L259.613,46.347 L262.715,46.347 Z M264.431,54.333 C265.157,53.431 265.806,52.408 266.378,51.264 L266.378,51.264 L266.675,50.67 C266.961,51.616 267.357,52.837 267.863,54.333 L267.863,54.333 L272.285,54.3 C271.911,53.266 271.6305,52.496 271.4435,51.99 C271.2565,51.484 271.0585,50.923 270.8495,50.307 C270.6405,49.691 270.283,48.734 269.777,47.436 L269.777,47.436 L267.5,47.436 C267.742,45.346 267.863,43.85 267.863,42.948 L267.863,42.948 L267.863,29.88 C267.863,29.572 267.841,29.22 267.797,28.824 L267.797,28.824 L263.54,28.824 L263.54,29.088 C263.5752,32.784 263.59456,35.84552 263.59808,38.27256 L263.598025,39.8290418 C263.593342,42.5509473 263.563,44.2451 263.507,44.9115 C263.397,46.2205 263.0505,47.579 262.4675,48.987 C261.8845,50.395 261.428,51.3465 261.098,51.8415 C260.768,52.3365 260.031,53.167 258.887,54.333 L258.887,54.333 L264.431,54.333 Z M259.151,40.506 C258.601,37.118 258.172,34.599 257.864,32.949 L253.013,32.949 L252.782,33.18 C253.112,35.314 253.3485,36.9365 253.4915,38.0475 C253.6345,39.1585 253.706,39.978 253.706,40.506 C255.488,40.66 257.303,40.66 259.151,40.506 Z M257.765,54.069 C258.293,50.131 258.6395,47.271 258.8045,45.489 C258.9695,43.707 259.052,42.409 259.052,41.595 L254.564,41.496 L254.102,41.661 C253.992,43.267 253.827,45.082 253.607,47.106 C253.387,49.13 253.2055,50.4665 253.0625,51.1155 C252.9195,51.7645 252.771,52.716 252.617,53.97 C254.289,54.124 256.005,54.157 257.765,54.069 Z" id="核酸检测"></path>
            </g>
        </g>
    </g>
</svg>
